X:52
T:Money Music
T:Money Musk
S:John Moore's Book 2
Z:Transcribed Steve Mansfield 04/2021
%%VWML: Moore2-4494-p40-0
F:http://www.vwml.org/record/Moore2/4494/p40
M:C
L:1/8
K:A
f| e>Ac>A e>Ad>f | e>Ac>A Bc/B/ df | e>Ac>A cd/e/ ea | f>dB>e cAA :|
|: f/g/ |a>ec>a e>ac>a | a>ed>a c>af>g | a>ec>a e>ac>a | f>dB>e cA Af/g/ |
a>ec>a e>ac>a | a>ed>a c>af>g | c>aB>e cAA :|

